packages/icons/src/assets/docker.svg

<svg xmlns="http://www.w3.org/2000/svg" width="25" height="24"><path fill-rule="evenodd" d="M12.843 8.25h5.947A3.754 3.754 0 0 1 22.54 12v3a3.754 3.754 0 0 1-3.75 3.75h-4.576a3.76 3.76 0 0 1-3.674 3H6.79V19.5c0-.59.233-1.123.606-1.525A6.73 6.73 0 0 1 3.79 12V9.053a.74.74 0 0 0-.33-.62l-.921-.618a2.23 2.23 0 0 1-.999-1.868V3h2.378a2.24 2.24 0 0 1 1.595.662l.527.527.527-.527A2.24 2.24 0 0 1 8.163 3h2.377v2.948c0 .755-.375 1.455-1.004 1.87l-.91.612a.74.74 0 0 0-.336.623v.697c0 .413.336.75.75.75h.698c.25 0 .482-.124.619-.33l.618-.921a2.23 2.23 0 0 1 1.867-.999m-2.303 12c1.24 0 2.25-1.01 2.25-2.25v-2.25h-.75a.75.75 0 0 0-.75.75c0 1.24-1.01 2.25-2.25 2.25a.75.75 0 0 0-.75.75v.75zm-.75-3.75c0-1.24 1.01-2.25 2.25-2.25h4.5a.75.75 0 0 0 .75-.75c0-1.24 1.01-2.25 2.25-2.25h1.362a2.25 2.25 0 0 0-2.112-1.5h-5.947a.74.74 0 0 0-.62.33l-.618.921A2.23 2.23 0 0 1 9.738 12H9.04c-1.24 0-2.25-1.01-2.25-2.25v-.697c0-.757.375-1.456 1.004-1.871l.91-.612a.74.74 0 0 0 .336-.623V4.5h-.877a.75.75 0 0 0-.535.223L6.04 6.31 4.452 4.723a.75.75 0 0 0-.534-.223H3.04v1.447c0 .252.124.483.33.62l.921.618c.624.413.999 1.112.999 1.868V12a5.23 5.23 0 0 0 4.135 5.128.74.74 0 0 0 .365-.628m6.75-.75h-2.25v1.5h4.5c1.24 0 2.25-1.01 2.25-2.25v-2.25h-1.5a.75.75 0 0 0-.75.75c0 1.24-1.01 2.25-2.25 2.25m-2.25-4.5h1.5v1.5h-1.5z" clip-rule="evenodd"/></svg>

<svg width="100%" height="100%" viewBox="0 0 24 24" version="1.1" xmlns="http://www.w3.org/2000/svg" xmlns:xlink="http://www.w3.org/1999/xlink" xml:space="preserve" style="fill-rule:evenodd;clip-rule:evenodd;stroke-linejoin:round;stroke-miterlimit:2;"><g transform="matrix(1,0,0,1,-0.0399911,-0.374994)"><path d="M12.843,8.25L18.79,8.25C20.846,8.252 22.538,9.944 22.54,12L22.54,15C22.538,17.056 20.846,18.748 18.79,18.75L14.214,18.75C13.855,20.487 12.314,21.746 10.54,21.75L6.79,21.75L6.79,19.5C6.79,18.91 7.023,18.377 7.396,17.975C5.178,16.813 3.785,14.504 3.79,12L3.79,9.053C3.791,8.804 3.667,8.571 3.46,8.433L2.539,7.815C1.913,7.401 1.537,6.697 1.54,5.947L1.54,3L3.918,3C4.517,2.999 5.091,3.237 5.513,3.662L6.04,4.189L6.567,3.662C6.989,3.237 7.564,2.998 8.163,3L10.54,3L10.54,5.948C10.54,6.703 10.165,7.403 9.536,7.818L8.626,8.43C8.416,8.567 8.289,8.802 8.29,9.053L8.29,9.75C8.29,10.163 8.626,10.5 9.04,10.5L9.738,10.5C9.988,10.5 10.22,10.376 10.357,10.17L10.975,9.249C11.389,8.624 12.092,8.247 12.842,8.25M10.539,20.25C11.779,20.25 12.789,19.24 12.789,18L12.789,15.75L12.039,15.75C11.628,15.75 11.289,16.089 11.289,16.5C11.289,17.74 10.279,18.75 9.039,18.75C8.628,18.75 8.289,19.089 8.289,19.5L8.289,20.25L10.539,20.25ZM9.789,16.5C9.789,15.26 10.799,14.25 12.039,14.25L16.539,14.25C16.95,14.25 17.289,13.911 17.289,13.5C17.289,12.26 18.299,11.25 19.539,11.25L20.901,11.25C20.585,10.356 19.737,9.754 18.789,9.75L12.842,9.75C12.593,9.749 12.36,9.873 12.222,10.08L11.604,11.001C11.19,11.626 10.488,12.002 9.738,12L9.04,12C7.8,12 6.79,10.99 6.79,9.75L6.79,9.053C6.79,8.296 7.165,7.597 7.794,7.182L8.704,6.57C8.914,6.433 9.041,6.198 9.04,5.947L9.04,4.5L8.163,4.5C7.962,4.5 7.769,4.58 7.628,4.723L6.04,6.31L4.452,4.723C4.311,4.58 4.119,4.5 3.918,4.5L3.04,4.5L3.04,5.947C3.04,6.199 3.164,6.43 3.37,6.567L4.291,7.185C4.915,7.598 5.29,8.297 5.29,9.053L5.29,12C5.283,14.463 7.017,16.612 9.425,17.128C9.648,16.997 9.787,16.758 9.79,16.5M16.54,15.75L14.29,15.75L14.29,17.25L18.79,17.25C20.03,17.25 21.04,16.24 21.04,15L21.04,12.75L19.54,12.75C19.129,12.75 18.79,13.089 18.79,13.5C18.79,14.74 17.78,15.75 16.54,15.75M14.29,11.25L15.79,11.25L15.79,12.75L14.29,12.75L14.29,11.25Z"/></g></svg>
